; generated by PrusaSlicer 2.8.0+linux-x64-GTK3 on 2025-07-27 at 18:04:33 UTC


;
;
; 

; external perimeters extrusion width = 0.60mm
; perimeters extrusion width = 0.50mm
; infill extrusion width = 0.50mm
; solid infill extrusion width = 0.50mm
; top infill extrusion width = 0.45mm
; first layer extrusion width = 0.42mm

M73 P0 R1
M73 Q0 S1
M201 X1000 Y1000 Z200 E5000 ; sets maximum accelerations, mm/sec^2
M203 X200 Y200 Z12 E120 ; sets maximum feedrates, mm / sec
M204 S1250 T1250 ; sets acceleration (S) and retract acceleration (R), mm/sec^2
M205 X8.00 Y8.00 Z0.40 E4.50 ; sets the jerk limits, mm/sec
M205 S0 T0 ; sets the minimum extruding and travel feed rate, mm/sec

; printing object s.stl id:0 copy 0
; stop printing object s.stl id:0 copy 0

;TYPE:Custom
M862.3 P "MK3S" ; printer model check
M862.1 P0.4 ; nozzle diameter check
M115 U3.14.0 ; tell printer latest fw version
G90 ; use absolute coordinates
M83 ; extruder relative mode
M104 S215 ; set extruder temp
M140 S60 ; set bed temp
M190 S60 ; wait for bed temp
M109 S215 ; wait for extruder temp
G28 W ; home all without mesh bed level
G80 X111.513 Y91.7321 W26.9888 H26.5357 ; mesh bed levelling

G1 Z0.2 F720
G1 Y-3 F1000 ; go outside print area
G92 E0
G1 X60 E9 F1000 ; intro line
G1 X100 E12.5 F1000 ; intro line
M73 P4 R1
M73 Q4 S1

G92 E0
M221 S95

; Don't change E values below. Excessive value can damage the printer.

M907 E538 ; set extruder motor current
G21 ; set units to millimeters
G90 ; use absolute coordinates
M83 ; use relative distances for extrusion

M900 K0.05 ; Filament gcode LA 1.5
M900 K30 ; Filament gcode LA 1.0




M107
;LAYER_CHANGE
;Z:0.2
;HEIGHT:0.2
G1 E-.8 F2100
M73 P6 R1
M73 Q6 S1
G1 Z.6 F720
G1 X113.787 Y95.617 F10800
G1 Z.2 F720
M73 P7 R1
M73 Q8 S1
G1 E.8 F2100
M204 S800
;TYPE:Skirt/Brim
;WIDTH:0.42
G1 F1200
G1 X114.498 Y94.888 E.03193
G1 X115.589 Y94.038 E.04336
G1 X117.109 Y93.209 E.05429
M73 P8 R1
G1 X118.322 Y92.749 E.04068
G1 X120.532 Y92.219 E.07126
G1 X122.727 Y91.973 E.06925
G1 X124.562 Y91.921 E.05756
G1 X127.934 Y92.092 E.10586
G1 X129.718 Y92.361 E.05657
M73 Q9 S1
G1 X130.981 Y92.657 E.04067
G1 X132.355 Y93.115 E.04541
G1 X133.631 Y93.71 E.04414
G1 X135.112 Y94.704 E.05593
M73 P9 R1
G1 X136.13 Y95.682 E.04426
G1 X136.891 Y96.672 E.03915
G1 X137.338 Y97.432 E.02765
G1 X138.001 Y99.12 E.05686
G1 X138.238 Y100.27 E.03682
G1 X138.314 Y101.505 E.0388
G1 X137.98 Y109.894 E.26324
G1 X137.831 Y110.808 E.02904
M73 P10 R1
M73 Q10 S1
G1 X137.457 Y112.098 E.04211
G1 X137.071 Y112.98 E.03019
G1 X136.511 Y113.918 E.03425
G1 X135.448 Y115.151 E.05104
G1 X134.4 Y115.992 E.04213
G1 X133.504 Y116.525 E.03269
G1 X132.036 Y117.146 E.04998
G1 X131.242 Y117.392 E.02606
G1 X129.933 Y117.676 E.042
G1 X127.706 Y117.965 E.07041
M73 Q11 S1
G1 X124.293 Y118.069 E.10706
G1 X122.246 Y117.927 E.06434
M73 P11 R1
G1 X121.098 Y117.758 E.03638
G1 X119.9 Y117.498 E.03844
G1 X118.676 Y117.12 E.04017
G1 X117.451 Y116.594 E.0418
G1 X116.253 Y115.885 E.04365
G1 X114.895 Y114.726 E.05598
G1 X114.17 Y113.847 E.03573
G1 X113.692 Y113.097 E.02789
G1 X113.199 Y112.054 E.03617
M73 Q12 S1
G1 X112.916 Y111.182 E.02874
G1 X112.695 Y109.956 E.03906
G1 X111.701 Y101.192 E.27655
G1 X111.751 Y100.234 E.03008
M73 P12 R1
G1 X111.995 Y99.027 E.03861
G1 X112.394 Y97.859 E.0387
G1 X112.875 Y96.895 E.03378
G1 X113.753 Y95.666 E.04736
M204 S1000
G1 X113.753 Y95.666 F10800
M73 Q13 S1
G1 X114.059 Y95.885
M204 S800
G1 F1200
G1 X114.082 Y95.853 E.00124
G1 X114.763 Y95.155 E.03058
G1 X115.816 Y94.34 E.04175
G1 X117.246 Y93.56 E.05107
G1 X118.424 Y93.112 E.03952
G1 X120.605 Y92.589 E.07032
G1 X122.757 Y92.348 E.0679
M73 P13 R1
G1 X124.553 Y92.298 E.05633
G1 X127.904 Y92.468 E.1052
G1 X129.632 Y92.728 E.05479
G1 X130.895 Y93.024 E.04067
G1 X132.233 Y93.471 E.04423
M73 Q14 S1
G1 X133.467 Y94.05 E.04274
G1 X134.858 Y94.982 E.0525
G1 X135.834 Y95.915 E.04233
G1 X136.573 Y96.873 E.03794
G1 X137.007 Y97.613 E.0269
M73 P14 R1
G1 X137.635 Y99.212 E.05386
G1 X137.863 Y100.311 E.03519
G1 X137.937 Y101.49 E.03704
G1 X137.603 Y109.879 E.26324
G1 X137.464 Y110.719 E.0267
M73 Q15 S1
G1 X137.099 Y111.979 E.04113
G1 X136.728 Y112.823 E.02891
G1 X136.191 Y113.718 E.03273
G1 X135.205 Y114.863 E.04738
M73 P15 R1
G1 X134.207 Y115.668 E.0402
G1 X133.311 Y116.201 E.03269
G1 X131.896 Y116.796 E.04813
G1 X131.152 Y117.026 E.02442
G1 X129.226 Y117.409 E.06157
G1 X127.669 Y117.59 E.04915
G1 X124.298 Y117.691 E.10574
G1 X122.28 Y117.551 E.06343
M73 Q16 S1
G1 X121.154 Y117.386 E.03568
G1 X119.982 Y117.13 E.03761
G1 X118.79 Y116.76 E.03913
G1 X117.604 Y116.249 E.04049
M73 P16 R1
G1 X116.451 Y115.564 E.04205
G1 X115.176 Y114.474 E.05259
G1 X114.47 Y113.619 E.03477
G1 X114.026 Y112.921 E.02594
G1 X113.546 Y111.907 E.03518
G1 X113.284 Y111.097 E.02669
G1 X113.07 Y109.914 E.03769
G1 X112.075 Y101.15 E.27655
G1 X112.125 Y100.284 E.0272
M73 P17 R1
M73 Q17 S1
G1 X112.357 Y99.134 E.03678
G1 X112.746 Y97.995 E.03774
G1 X113.194 Y97.096 E.03149
G1 X114.024 Y95.934 E.04477
M204 S1000
;WIPE_START
G1 F8640
G1 X114.059 Y95.885 E-.0139
G1 X114.082 Y95.853 E-.0091
G1 X114.763 Y95.155 E-.22517
G1 X115.816 Y94.34 E-.30746
G1 X116.745 Y93.833 E-.24437
;WIPE_END
G1 Z.6 F720
; printing object s.stl id:0 copy 0
G1 X134.443 Y110.535 F10800
G1 Z.2 F720
M73 Q18 S1
G1 E.8 F2100
M204 S800
;TYPE:Perimeter
;WIDTH:0.419999
G1 F1200
G1 X134.288 Y111.003 E.01546
G1 X134.042 Y111.542 E.01858
M73 P18 R1
G1 X133.699 Y112.091 E.0203
G1 X133.237 Y112.631 E.02228
G1 X132.628 Y113.144 E.02497
G1 X131.842 Y113.613 E.0287
G1 X130.831 Y114.017 E.03414
G1 X129.941 Y114.258 E.02891
G1 X128.762 Y114.469 E.03755
G1 X127.378 Y114.628 E.04368
G1 X125.886 Y114.715 E.04686
G1 X124.348 Y114.716 E.04822
G1 X123.497 Y114.676 E.02671
G1 X122.577 Y114.59 E.02897
M73 Q19 S1
G1 X121.623 Y114.447 E.03025
G1 X120.664 Y114.233 E.03081
G1 X119.732 Y113.937 E.03066
G1 X118.856 Y113.55 E.03003
G1 X118.064 Y113.063 E.02915
G1 X117.367 Y112.459 E.02892
M73 P19 R1
G1 X116.862 Y111.846 E.0249
G1 X116.459 Y111.151 E.02519
G1 X116.178 Y110.397 E.02523
G1 X116.06 Y109.756 E.02044
G1 X116.011 Y109.201 E.01747
G1 X116.106 Y108.234 E.03047
G1 X116.353 Y107.454 E.02565
G1 X116.714 Y106.81 E.02315
G1 X117.16 Y106.277 E.02179
G1 X117.659 Y105.844 E.02071
G1 X118.172 Y105.502 E.01933
G1 X118.646 Y105.252 E.0168
G1 X119.846 Y104.8 E.04021
G1 X121.036 Y104.478 E.03865
G1 X121.962 Y104.275 E.02972
G1 X126.767 Y103.333 E.15353
M73 Q20 S1
G1 X127.918 Y103.044 E.03721
G1 X128.67 Y102.675 E.02626
M73 P20 R1
G1 X129.074 Y102.349 E.01628
G1 X129.296 Y102.09 E.0107
G1 X129.543 Y101.66 E.01555
G1 X129.674 Y101.152 E.01645
G1 X129.657 Y100.395 E.02374
G1 X129.448 Y99.799 E.0198
G1 X129.124 Y99.308 E.01844
G1 X128.725 Y98.911 E.01765
G1 X128.277 Y98.607 E.01698
G1 X127.645 Y98.344 E.02146
G1 X126.995 Y98.185 E.02098
G1 X126.012 Y98.083 E.03099
G1 X125.475 Y98.061 E.01685
G1 X124.535 Y98.101 E.0295
G1 X123.421 Y98.282 E.03539
G1 X122.835 Y98.443 E.01905
G1 X122.256 Y98.673 E.01953
G1 X121.675 Y99.015 E.02114
M73 Q21 S1
G1 X121.248 Y99.368 E.01737
G1 X120.872 Y99.815 E.01831
G1 X120.605 Y100.294 E.01719
G1 X115.183 Y100.142 E.17007
G1 X115.218 Y99.954 E.006
M73 P21 R1
G1 X115.497 Y99.138 E.02704
G1 X115.731 Y98.651 E.01694
G1 X116.018 Y98.197 E.01684
G1 X116.379 Y97.744 E.01816
G1 X116.822 Y97.305 E.01955
G1 X117.554 Y96.756 E.02869
G1 X118.373 Y96.315 E.02917
G1 X119.267 Y95.966 E.03009
G1 X120.205 Y95.702 E.03055
G1 X121.159 Y95.513 E.03049
G1 X122.095 Y95.388 E.02961
G1 X122.981 Y95.316 E.02787
G1 X124.5 Y95.273 E.04765
M73 Q22 S1
G1 X126.146 Y95.313 E.05162
G1 X127.64 Y95.432 E.04699
G1 X128.984 Y95.632 E.0426
G1 X130.177 Y95.912 E.03842
M73 P22 R1
G1 X131.223 Y96.271 E.03467
G1 X132.125 Y96.706 E.0314
G1 X132.893 Y97.217 E.02892
G1 X133.394 Y97.677 E.02133
G1 X133.831 Y98.182 E.02094
G1 X134.157 Y98.632 E.01742
G1 X134.446 Y99.162 E.01893
G1 X134.727 Y99.908 E.02499
G1 X134.868 Y100.483 E.01856
G1 X134.943 Y101.237 E.02376
G1 X134.933 Y101.924 E.02154
G1 X134.848 Y102.42 E.01578
G1 X134.699 Y102.916 E.01624
G1 X134.481 Y103.393 E.01644
G1 X134.187 Y103.848 E.01699
G1 X133.808 Y104.278 E.01797
G1 X133.331 Y104.678 E.01952
M73 Q23 S1
G1 X132.746 Y105.039 E.02155
G1 X131.754 Y105.465 E.03385
G1 X130.98 Y105.711 E.02546
G1 X130.175 Y105.907 E.02598
G1 X126.472 Y106.688 E.11866
G1 X124.279 Y107.181 E.07048
M73 P23 R1
G1 X123.244 Y107.487 E.03384
G1 X122.413 Y107.83 E.02819
G1 X122.001 Y108.074 E.01501
G1 X121.668 Y108.371 E.01399
G1 X121.422 Y108.731 E.01367
G1 X121.293 Y109.073 E.01146
G1 X121.219 Y109.54 E.01483
G1 X121.272 Y110.032 E.01552
G1 X121.379 Y110.429 E.01289
G1 X121.742 Y110.979 E.02066
G1 X122.209 Y111.364 E.01898
G1 X122.72 Y111.622 E.01795
G1 X123.269 Y111.796 E.01806
G1 X124.44 Y111.968 E.03711
G1 X125.112 Y111.995 E.02109
M73 Q24 S1
G1 X125.791 Y111.964 E.02131
G1 X126.341 Y111.906 E.01734
G1 X126.902 Y111.811 E.01784
G1 X127.586 Y111.593 E.02251
G1 X128.051 Y111.359 E.01632
G1 X128.495 Y111.024 E.01744
G1 X128.83 Y110.647 E.01581
G1 X129.076 Y110.222 E.0154
G1 X134.396 Y110.522 E.16707
M73 P24 R1
M204 S1000
G1 X134.396 Y110.522 F10800
G1 X134.916 Y110.178
M204 S800
;TYPE:External perimeter
G1 F1200
G1 X134.819 Y110.599 E.01355
G1 X134.639 Y111.141 E.01791
G1 X134.375 Y111.721 E.01998
G1 X134.004 Y112.315 E.02196
G1 X133.503 Y112.899 E.02413
G1 X132.848 Y113.453 E.0269
G1 X132.009 Y113.952 E.03061
G1 X130.95 Y114.376 E.03577
G1 X130.023 Y114.626 E.0301
M73 Q25 S1
G1 X128.817 Y114.842 E.03841
G1 X127.413 Y115.004 E.04431
G1 X125.894 Y115.092 E.04771
G1 X124.339 Y115.093 E.04876
G1 X123.471 Y115.052 E.02725
M73 P25 R1
G1 X122.532 Y114.965 E.02957
G1 X121.554 Y114.818 E.03101
G1 X120.566 Y114.598 E.03174
G1 X119.598 Y114.29 E.03185
G1 X118.68 Y113.884 E.03147
G1 X117.84 Y113.368 E.03091
G1 X117.097 Y112.724 E.03083
G1 X116.551 Y112.062 E.02691
G1 X116.117 Y111.313 E.02714
G1 X115.813 Y110.497 E.0273
G1 X115.69 Y109.824 E.02145
G1 X115.633 Y109.191 E.01993
G1 X115.735 Y108.158 E.03255
M73 Q26 S1
G1 X116.005 Y107.304 E.02808
G1 X116.403 Y106.595 E.02549
G1 X116.89 Y106.012 E.02382
G1 X117.43 Y105.543 E.02243
G1 X117.979 Y105.177 E.02069
G1 X118.491 Y104.907 E.01815
G1 X119.731 Y104.441 E.04153
M73 P26 R1
G1 X120.946 Y104.111 E.03948
G1 X121.886 Y103.906 E.03017
G1 X126.678 Y102.967 E.15311
G1 X127.759 Y102.702 E.0349
G1 X128.433 Y102.382 E.02339
G1 X128.866 Y102.026 E.01758
G1 X129.159 Y101.585 E.0166
G1 X129.297 Y101.146 E.01443
G1 X129.298 Y100.509 E.01997
G1 X129.142 Y100.024 E.01597
G1 X128.877 Y99.601 E.01565
M73 Q27 S1
G1 X128.537 Y99.245 E.01543
G1 X128.129 Y98.953 E.01573
G1 X127.554 Y98.709 E.01958
G1 X126.944 Y98.558 E.0197
G1 X125.995 Y98.459 E.02992
G1 X125.49 Y98.437 E.01585
G1 X124.584 Y98.475 E.02843
G1 X123.511 Y98.648 E.03408
M73 P27 R1
G1 X122.971 Y98.795 E.01755
G1 X122.443 Y99.001 E.01777
G1 X121.915 Y99.305 E.0191
G1 X121.481 Y99.669 E.01776
G1 X121.143 Y100.086 E.01683
G1 X120.863 Y100.679 E.02056
G1 X114.729 Y100.506 E.1924
G1 X114.853 Y99.857 E.02072
G1 X115.165 Y98.944 E.03025
G1 X115.402 Y98.466 E.01673
G1 X115.71 Y97.978 E.01809
M73 Q28 S1
G1 X116.098 Y97.492 E.0195
G1 X116.574 Y97.019 E.02104
G1 X117.35 Y96.437 E.03041
G1 X118.215 Y95.972 E.03079
G1 X119.147 Y95.608 E.03137
G1 X120.118 Y95.335 E.03163
G1 X121.097 Y95.141 E.03129
M73 P28 R1
G1 X122.055 Y95.013 E.0303
G1 X122.96 Y94.939 E.02847
G1 X124.499 Y94.896 E.04827
G1 X126.165 Y94.936 E.05225
G1 X127.683 Y95.058 E.04775
G1 X129.055 Y95.262 E.04349
G1 X130.282 Y95.549 E.03951
G1 X131.366 Y95.921 E.03593
G1 X132.313 Y96.378 E.03297
G1 X133.126 Y96.92 E.03064
M73 Q29 S1
G1 X133.812 Y97.548 E.02916
G1 X134.385 Y98.276 E.02905
G1 X134.721 Y98.848 E.0208
G1 X135.005 Y99.507 E.0225
G1 X135.212 Y100.229 E.02355
G1 X135.289 Y100.761 E.01685
M73 P29 R1
G1 X135.32 Y101.243 E.01514
G1 X135.309 Y101.958 E.02242
G1 X135.216 Y102.507 E.01746
G1 X135.053 Y103.049 E.01775
G1 X134.813 Y103.575 E.01813
G1 X134.489 Y104.077 E.01873
G1 X134.072 Y104.549 E.01975
G1 X133.553 Y104.984 E.02123
G1 X132.921 Y105.375 E.0233
G1 X131.886 Y105.818 E.0353
G1 X131.082 Y106.074 E.02646
G1 X130.259 Y106.275 E.02656
G1 X126.557 Y107.055 E.11862
G1 X124.362 Y107.549 E.07054
G1 X123.388 Y107.836 E.03184
M73 Q30 S1
G1 X122.557 Y108.179 E.02819
G1 X122.198 Y108.396 E.01315
G1 X121.927 Y108.646 E.01156
G1 X121.741 Y108.931 E.01067
G1 X121.652 Y109.189 E.00856
G1 X121.592 Y109.672 E.01526
M73 P30 R1
G1 X121.703 Y110.235 E.01799
G1 X121.988 Y110.694 E.01694
G1 X122.383 Y111.029 E.01624
G1 X122.839 Y111.264 E.01608
G1 X123.332 Y111.424 E.01625
G1 X124.457 Y111.591 E.03566
G1 X125.095 Y111.618 E.02002
G1 X125.774 Y111.587 E.02131
G1 X126.282 Y111.533 E.01602
G1 X126.792 Y111.451 E.0162
G1 X127.416 Y111.257 E.02049
G1 X127.881 Y111.022 E.01634
G1 X128.2 Y110.777 E.01261
G1 X128.562 Y110.374 E.01699
G1 X128.821 Y109.83 E.01889
G1 X134.86 Y110.171 E.18965
M204 S1000
;WIPE_START
G1 F8640
M73 Q31 S1
G1 X134.916 Y110.178 E-.01303
G1 X134.819 Y110.599 E-.09976
G1 X134.639 Y111.141 E-.13187
G1 X134.375 Y111.721 E-.14714
G1 X134.004 Y112.315 E-.16171
G1 X133.503 Y112.899 E-.17767
G1 X133.275 Y113.091 E-.06882
;WIPE_END
G1 Z.6 F720
G1 X133.397 Y110.636 F10800
M73 P31 R1
G1 Z.2 F720
G1 E.8 F2100
M204 S800
;TYPE:Solid infill
;WIDTH:0.42669
G1 F1200
G1 X133.868 Y111.107 E.02126
G1 X133.687 Y111.469 E.01292
G1 X133.002 Y110.784 E.03091
G1 X132.427 Y110.751 E.01838
G1 X133.479 Y111.803 E.04748
G1 X133.239 Y112.106 E.01233
G1 X131.852 Y110.719 E.06259
G1 X131.276 Y110.686 E.01841
G1 X132.987 Y112.397 E.07721
M73 Q32 S1
G1 X132.693 Y112.646 E.01229
G1 X130.701 Y110.654 E.0899
G1 X130.126 Y110.621 E.01838
M73 P32 R1
G1 X132.394 Y112.889 E.10235
G1 X132.054 Y113.092 E.01264
G1 X129.551 Y110.589 E.11296
G1 X129.269 Y110.573 E.00901
G1 X129.164 Y110.745 E.00643
G1 X131.713 Y113.294 E.11503
G1 X131.329 Y113.453 E.01326
M73 Q33 S1
G1 X128.925 Y111.049 E.10849
G1 X128.659 Y111.325 E.01223
G1 X130.941 Y113.608 E.10301
G1 X130.536 Y113.745 E.01364
M73 P33 R1
G1 X128.348 Y111.557 E.09874
G1 X128.215 Y111.656 E.00529
G1 X128.006 Y111.757 E.00741
G1 X130.109 Y113.861 E.09493
G1 X129.866 Y113.926 E.00803
G1 X129.668 Y113.962 E.00642
G1 X127.64 Y111.935 E.0915
G1 X127.228 Y112.066 E.0138
M73 Q34 S1
G1 X129.207 Y114.045 E.08931
G1 X128.747 Y114.127 E.01491
G1 X126.794 Y112.174 E.08814
G1 X126.325 Y112.248 E.01515
M73 P34 R1
G1 X128.262 Y114.185 E.08741
G1 X127.775 Y114.241 E.01564
G1 X125.836 Y112.301 E.08753
G1 X125.317 Y112.325 E.01658
G1 X127.285 Y114.294 E.08884
G1 X126.773 Y114.323 E.01636
M73 Q35 S0
G1 X124.769 Y112.32 E.09041
M73 P34 R0
G1 X124.198 Y112.291 E.01824
G1 X126.26 Y114.353 E.09305
G1 X125.739 Y114.376 E.01664
M73 P35 R0
G1 X123.344 Y111.98 E.10811
M204 S1000
;WIPE_START
G1 F8640
G1 X125.739 Y114.376 E-.78224
G1 X125.816 Y114.373 E-.01776
;WIPE_END
G1 Z.6 F720
G1 X134.079 Y98.836 F10800
G1 Z.2 F720
M73 Q36 S0
G1 E.8 F2100
M204 S800
G1 F1200
G1 X133.236 Y97.993 E.03804
G1 X132.683 Y97.485 E.02396
M73 P36 R0
G1 X131.957 Y97.002 E.02783
G1 X131.466 Y96.765 E.0174
G1 X134.237 Y99.536 E.12505
G1 X134.328 Y99.748 E.00736
G1 X134.498 Y100.34 E.01965
G1 X130.561 Y96.403 E.17767
G1 X130.083 Y96.239 E.01613
M73 Q37 S0
G1 X129.784 Y96.169 E.0098
G1 X134.597 Y100.982 E.2172
G1 X134.599 Y101.526 E.01736
M73 P37 R0
G1 X129.075 Y96.002 E.24929
G1 X128.422 Y95.892 E.02113
G1 X134.569 Y102.039 E.2774
G1 X134.517 Y102.343 E.00984
M73 P38 R0
M73 Q38 S0
G1 X134.474 Y102.487 E.0048
G1 X127.784 Y95.797 E.30191
G1 X127.181 Y95.736 E.01934
M73 Q39 S0
G1 X134.337 Y102.892 E.32294
G1 X134.163 Y103.261 E.01302
M73 P39 R0
G1 X126.591 Y95.689 E.34171
G1 X126.008 Y95.649 E.01865
M73 Q40 S0
G1 X133.95 Y103.59 E.35839
G1 X133.702 Y103.885 E.0123
M73 P40 R0
G1 X129.913 Y100.096 E.17099
G1 X129.83 Y99.818 E.00926
M73 Q41 S0
G1 X129.739 Y99.624 E.00684
G1 X129.385 Y99.09 E.02044
G1 X129.044 Y98.738 E.01564
M73 P41 R0
G1 X128.576 Y98.387 E.01867
G1 X128.418 Y98.298 E.00579
G1 X127.891 Y98.074 E.01827
G1 X125.452 Y95.636 E.11005
G1 X124.896 Y95.622 E.01775
G1 X127.147 Y97.874 E.10161
G1 X126.507 Y97.776 E.02066
G1 X124.35 Y95.619 E.09734
G1 X123.821 Y95.633 E.01689
